X:8545
T:Kilfenora Reel
R:Reel
S:
H:
N:
D:
Z:Adrian Scahill
M:4/4
L:1/8
K:D
A2FA A2FA|B2GB B2GB|A2FA AFED|CDEF GBdB|\
A2FA A2FA|B2GB B2GB|AdcB AGFE|D2CE D4:||\
Adfd Adfd|Acec Acec|Adfd Adfd|cABc d3B|\
Adfd Adfd|Acec AceA|BdcB AGFE|D2CE D4:||
